svg/audio_input_rca.svg

<svg xmlns="http://www.w3.org/2000/svg" viewBox="0 0 24 24"><path d="M11 6v6H5V6h2V2c0-.55.45-1 1-1s1 .45 1 1v4zm-6 8v2c0 1.3.84 2.4 2 2.82V23h2v-4.18c1.16-.42 2-1.52 2-2.82v-2zm12-8V2c0-.55-.45-1-1-1s-1 .45-1 1v4h-2v6h6V6zm-4 8v2c0 1.3.84 2.4 2 2.82V23h2v-4.18c1.16-.42 2-1.52 2-2.82v-2z"/></svg>

<svg xmlns="http://www.w3.org/2000/svg" id="mdi-audio-input-rca" viewBox="0 0 24 24"><path d="M11 6V12H5V6H7V2C7 1.45 7.45 1 8 1S9 1.45 9 2V6H11M5 14V16C5 17.3 5.84 18.4 7 18.82V23H9V18.82C10.16 18.4 11 17.3 11 16V14H5M17 6V2C17 1.45 16.55 1 16 1S15 1.45 15 2V6H13V12H19V6H17M13 14V16C13 17.3 13.84 18.4 15 18.82V23H17V18.82C18.16 18.4 19 17.3 19 16V14H13Z" /></svg>
